X: 2179
T: Şevkâver Peşrev
C: I. Mahmud (Sebkatî)
O: Turkey
F: http://compmusic.upf.edu/node/140
N: sevkaver--pesrev--hafif----i_mahmut
N: makam= sevkaver
N: form= pesrev
N: usul= hafif = 32/4
M: 32/4
L: 1/16
K: C _1/4B _1/4e  
Q: 1/4=60
%%MIDI tuningsystem comma53
_2/4e2 f4 g2 f4 g2 a2  | g2 f g f2 _2/4e2 e3 d c4  | \
w:  1. HANE  |   | 
d2 _2/4e2 f2 g2 e2 f2 d2 e2  | 
w:   | 
d2 c4 _2/4B2 c3 B A4  | z4 _2/4B2 c2 B4 c4  | \
w:   |   | 
d3 f _2/4e d c2 z2 e f e3 d  | 
w:   | 
c3 _2/4B A2 B2 c6 G2  | A2 G2 A2 _2/4B2 c d c B c4  | \
w:   |   | 
z2 _2/4B c B2 c2 d2 _e2 d2 c2  | 
w:   | 
_2/4B4 A4 B A B c B2 A2  | A2 _2/4B2 A2 G2 F6 f2  | \
w:   |   | 
=e6 d2 e3 d c4  | c2 d =e f2 e2 f2 a2 g2 f2  | 
w:   |  TESLİM  | 
f2 =e4 d2 e3 d c2 _B2  | A6 F2 A2 G2 F2 E2  | \
w:   |   | 
F6 C2 D2 E2 F4  | c2 d =e f2 e2 f2 a2 g2 f2  | 
w:   |  TESLİM  | 
f2 =e4 d2 e3 d c2 _B2  | A6 F2 A2 G2 F2 E2  | \
w:   |   | 
F6 C2 D2 E2 F4  | |


